;FLAVOR:Marlin
;TIME:3297
;Filament used: 0.663331m
;Layer height: 0.1
;Generated with Cura_SteamEngine 3.6.0
M104 S200
M105
M109 S200
M82 ;absolute extrusion mode
G28 ;Home
G1 Z15.0 F6000 ;Move the platform down 15mm
;Prime the extruder
G92 E0
G1 F200 E3
G92 E0
G92 E0
G1 F2400 E-5
;LAYER_COUNT:165
;LAYER:0
M107
M204 S5000
M205 X30 Y30
G0 F3600 X106.234 Y106.771 Z0.2
M204 S3000
M205 X20 Y20
;TYPE:SKIRT
G1 F2400 E0
G1 F1650 X106.651 Y106.389 E0.00709
G1 X107.117 Y106.069 E0.01418
G1 X107.441 Y105.899 E0.01877
G1 X109.283 Y105.035 E0.04428
G1 X109.811 Y104.831 E0.05138
G1 X110.362 Y104.704 E0.05847
G1 X110.781 Y104.661 E0.06375
G1 X128.702 Y103.761 E0.28877
G1 X129.21 Y103.768 E0.29515
G1 X130.224 Y103.846 E0.3079
G1 X130.687 Y103.909 E0.31376
G1 X132.941 Y104.351 E0.34256
G1 X133.486 Y104.498 E0.34964
G1 X134.202 Y104.83 E0.35954
G1 X134.806 Y105.186 E0.36833
G1 X135.272 Y105.507 E0.37543
G1 X135.687 Y105.89 E0.38251
G1 X136.045 Y106.328 E0.3896
G1 X136.289 Y106.721 E0.3954
G1 X136.512 Y107.131 E0.40126
G1 X136.746 Y107.645 E0.40834
G1 X136.906 Y108.188 E0.41544
G1 X136.989 Y108.78 E0.42293
G1 X137.02 Y109.252 E0.42887
G1 X137.017 Y109.817 E0.43595
G1 X136.935 Y110.376 E0.44304
G1 X136.825 Y110.776 E0.44824
G1 X136.712 Y111.116 E0.45273
G1 X136.438 Y111.75 E0.46139
G1 X135.661 Y113.193 E0.48195
G1 X135.487 Y113.485 E0.48621
G1 X134.819 Y114.507 E0.50152
G1 X134.529 Y114.898 E0.50762
G1 X133.393 Y116.245 E0.52972
G1 X133.241 Y116.415 E0.53258
G1 X121.837 Y128.469 E0.74067
G1 X121.42 Y128.851 E0.74776
G1 X120.954 Y129.171 E0.75485
G1 X120.63 Y129.341 E0.75944
G1 X118.788 Y130.205 E0.78496
G1 X118.26 Y130.409 E0.79205
G1 X117.709 Y130.536 E0.79914
G1 X117.297 Y130.579 E0.80434
G1 X99.966 Y131.481 E1.02197
G1 X99.618 Y131.484 E1.02633
G1 X98.421 Y131.442 E1.04135
G1 X97.944 Y131.396 E1.04736
G1 X96.182 Y131.121 E1.06973
G1 X95.734 Y131.025 E1.07547
G1 X94.481 Y130.679 E1.09177
G1 X93.948 Y130.49 E1.09887
G1 X93.447 Y130.228 E1.10596
G1 X92.897 Y129.82 E1.11454
G1 X92.622 Y129.577 E1.11915
G1 X92.226 Y129.174 E1.12623
G1 X91.793 Y128.555 E1.1357
G1 X91.617 Y128.245 E1.14017
G1 X91.373 Y127.735 E1.14726
G1 X91.204 Y127.195 E1.15436
G1 X91.114 Y126.658 E1.16119
G1 X91.061 Y126.114 E1.16804
G1 X91.046 Y125.549 E1.17513
G1 X91.111 Y124.987 E1.18223
G1 X91.231 Y124.512 E1.18837
G1 X91.331 Y124.198 E1.1925
G1 X91.619 Y123.517 E1.20177
G1 X92.402 Y122.061 E1.22251
G1 X92.577 Y121.768 E1.22679
G1 X93.26 Y120.723 E1.24244
G1 X93.556 Y120.326 E1.24865
G1 X94.734 Y118.935 E1.27151
G1 X94.88 Y118.771 E1.27426
G1 X106.234 Y106.771 E1.48143
M204 S5000
M205 X30 Y30
G0 F3600 X106.525 Y107.046
M204 S3000
M205 X20 Y20
G1 F1650 X106.922 Y106.685 E1.48816
G1 X107.367 Y106.387 E1.49488
G1 X107.611 Y106.261 E1.49832
G1 X109.453 Y105.397 E1.52383
G1 X109.954 Y105.206 E1.53056
G1 X110.478 Y105.091 E1.53729
G1 X110.801 Y105.061 E1.54135
G1 X128.722 Y104.161 E1.76637
G1 X129.179 Y104.167 E1.7721
G1 X130.193 Y104.245 E1.78486
G1 X130.61 Y104.301 E1.79013
G1 X132.864 Y104.743 E1.81894
G1 X133.381 Y104.885 E1.82566
G1 X133.999 Y105.175 E1.83422
G1 X134.603 Y105.531 E1.84301
G1 X135.043 Y105.837 E1.84974
G1 X135.434 Y106.205 E1.85647
G1 X135.765 Y106.626 E1.86318
G1 X135.937 Y106.912 E1.86737
G1 X136.16 Y107.322 E1.87322
G1 X136.381 Y107.811 E1.87995
G1 X136.526 Y108.327 E1.88667
G1 X136.59 Y108.806 E1.89273
G1 X136.621 Y109.278 E1.89867
G1 X136.616 Y109.814 E1.90539
G1 X136.532 Y110.344 E1.91212
G1 X136.445 Y110.649 E1.91609
G1 X136.332 Y110.989 E1.92059
G1 X136.086 Y111.561 E1.9284
G1 X135.309 Y113.004 E1.94895
G1 X135.152 Y113.267 E1.95279
G1 X134.484 Y114.289 E1.9681
G1 X134.223 Y114.64 E1.97359
G1 X133.087 Y115.987 E1.99568
G1 X132.95 Y116.14 E1.99826
G1 X121.546 Y128.194 E2.20635
G1 X121.15 Y128.555 E2.21307
G1 X120.704 Y128.853 E2.2198
G1 X120.46 Y128.979 E2.22324
G1 X118.618 Y129.843 E2.24875
G1 X118.117 Y130.034 E2.25548
G1 X117.593 Y130.149 E2.2622
G1 X117.276 Y130.179 E2.2662
G1 X99.945 Y131.081 E2.48383
G1 X99.632 Y131.084 E2.48775
G1 X98.435 Y131.042 E2.50277
G1 X98.006 Y131.001 E2.50818
G1 X96.244 Y130.726 E2.53054
G1 X95.841 Y130.639 E2.53571
G1 X94.588 Y130.293 E2.55201
G1 X94.083 Y130.112 E2.55874
G1 X93.61 Y129.858 E2.56547
G1 X93.162 Y129.521 E2.5725
G1 X92.887 Y129.278 E2.57711
G1 X92.513 Y128.894 E2.58383
G1 X92.14 Y128.357 E2.59203
G1 X91.964 Y128.047 E2.5965
G1 X91.735 Y127.563 E2.60321
G1 X91.58 Y127.049 E2.60994
G1 X91.512 Y126.619 E2.6154
G1 X91.459 Y126.075 E2.62226
G1 X91.447 Y125.539 E2.62898
G1 X91.515 Y125.007 E2.63571
G1 X91.612 Y124.634 E2.64054
G1 X91.712 Y124.32 E2.64467
G1 X91.971 Y123.707 E2.65302
G1 X92.754 Y122.251 E2.67375
G1 X92.912 Y121.986 E2.67762
G1 X93.595 Y120.941 E2.69327
G1 X93.861 Y120.584 E2.69886
G1 X95.039 Y119.193 E2.72172
G1 X95.171 Y119.046 E2.72419
G1 X106.525 Y107.046 E2.93136
M204 S5000
M205 X30 Y30
G0 F3600 X106.816 Y107.321
M204 S3000
M205 X20 Y20
G1 F1650 X107.191 Y106.982 E2.9377
G1 X107.781 Y106.623 E2.94636
G1 X109.623 Y105.759 E2.97188
G1 X110.096 Y105.581 E2.97821
G1 X110.821 Y105.46 E2.98743
G1 X128.742 Y104.56 E3.21245
G1 X129.148 Y104.565 E3.21754
G1 X130.162 Y104.643 E3.2303
G1 X130.533 Y104.694 E3.23499
G1 X132.787 Y105.136 E3.2638
G1 X133.274 Y105.272 E3.27014
G1 X133.796 Y105.519 E3.27738
G1 X134.4 Y105.875 E3.28617
G1 X134.814 Y106.166 E3.29252
G1 X135.177 Y106.517 E3.29885
G1 X135.586 Y107.103 E3.30781
G1 X135.809 Y107.513 E3.31366
G1 X136.015 Y107.975 E3.32001
G1 X136.145 Y108.463 E3.32634
G1 X136.191 Y108.832 E3.331
G1 X136.222 Y109.304 E3.33694
G1 X136.215 Y109.81 E3.34328
G1 X136.066 Y110.523 E3.35242
G1 X135.953 Y110.863 E3.35691
G1 X135.734 Y111.371 E3.36385
G1 X134.957 Y112.814 E3.3844
G1 X134.818 Y113.048 E3.38781
G1 X134.15 Y114.07 E3.40312
G1 X133.917 Y114.382 E3.40801
G1 X132.781 Y115.729 E3.4301
G1 X132.66 Y115.865 E3.43239
G1 X121.256 Y127.919 E3.64048
G1 X120.88 Y128.258 E3.64683
G1 X120.29 Y128.617 E3.65549
G1 X118.448 Y129.481 E3.681
G1 X117.975 Y129.659 E3.68734
G1 X117.255 Y129.78 E3.69649
G1 X99.924 Y130.682 E3.91413
G1 X99.646 Y130.684 E3.91761
G1 X98.449 Y130.642 E3.93263
G1 X98.068 Y130.606 E3.93743
G1 X96.306 Y130.331 E3.95979
G1 X95.947 Y130.254 E3.9644
G1 X94.694 Y129.908 E3.9807
G1 X94.219 Y129.735 E3.98704
G1 X93.777 Y129.49 E3.99338
G1 X93.427 Y129.221 E3.99891
G1 X93.152 Y128.978 E4.00351
G1 X92.801 Y128.614 E4.00986
G1 X92.488 Y128.16 E4.01677
G1 X92.312 Y127.85 E4.02124
G1 X92.098 Y127.392 E4.02758
G1 X91.959 Y126.906 E4.03392
G1 X91.91 Y126.58 E4.03805
G1 X91.857 Y126.036 E4.04491
G1 X91.848 Y125.531 E4.05124
G1 X91.919 Y125.03 E4.05759
G1 X91.993 Y124.755 E4.06116
G1 X92.093 Y124.441 E4.06529
G1 X92.324 Y123.896 E4.07271
G1 X93.107 Y122.44 E4.09345
G1 X93.246 Y122.205 E4.09687
G1 X93.929 Y121.16 E4.11253
G1 X94.166 Y120.843 E4.11749
G1 X95.344 Y119.452 E4.14035
G1 X95.462 Y119.321 E4.14256
G1 X106.816 Y107.321 E4.34973
M204 S5000
M205 X30 Y30
G1 F2400 E-0.65027
;MESH:01 Cura.STL
G0 F3600 X108.588 Y109.121
G0 X109.521 Y110.003
G0 X96.257 Y126.023
M204 S3000
M205 X20 Y20
;TYPE:WALL-INNER
G1 F2400 E4.34973
G1 F1650 X96.091 Y125.987 E4.35186
G1 X96.04 Y125.951 E4.35264
G1 X96.021 Y125.906 E4.35325
G1 X96.027 Y125.862 E4.35381
G1 X96.106 Y125.712 E4.35593
G1 X96.642 Y124.705 E4.37024
G1 X97.098 Y123.935 E4.38146
G1 X97.614 Y123.218 E4.39254
G1 X98.214 Y122.524 E4.40405
G1 X109.749 Y110.317 E4.61466
G1 X111.258 Y109.62 E4.6355
G1 X128.018 Y108.755 E4.84596
G1 X128.936 Y108.747 E4.85747
G1 X129.834 Y108.821 E4.86877
G1 X130.707 Y108.971 E4.87988
G1 X131.811 Y109.211 E4.89405
G1 X131.931 Y109.237 E4.89559
G1 X132.009 Y109.266 E4.89663
G1 X132.043 Y109.313 E4.89736
G1 X132.049 Y109.335 E4.89764
G1 X132.046 Y109.369 E4.89807
G1 X132.019 Y109.432 E4.89893
G1 X131.961 Y109.54 E4.90047
G1 X131.429 Y110.535 E4.91462
G1 X130.973 Y111.305 E4.92584
G1 X130.457 Y112.022 E4.93692
G1 X129.86 Y112.712 E4.94836
G1 X118.322 Y124.923 E5.15904
G1 X116.813 Y125.62 E5.17988
G1 X100.053 Y126.485 E5.39034
G1 X99.133 Y126.492 E5.40188
G1 X98.239 Y126.419 E5.41312
G1 X97.36 Y126.269 E5.42431
G1 X96.257 Y126.023 E5.43848
M204 S5000
M205 X30 Y30
G0 F3600 X98.206 Y126.718
G0 X98.194 Y126.817
M204 S3000
M205 X20 Y20
G1 F1650 X97.277 Y126.66 E5.45014
G1 X96.043 Y126.391 E5.46598
G1 X95.936 Y126.357 E5.46739
G1 X95.853 Y126.315 E5.46856
G1 X95.792 Y126.271 E5.4695
G1 X95.733 Y126.209 E5.47057
G1 X95.685 Y126.14 E5.47163
G1 X95.651 Y126.066 E5.47265
G1 X95.627 Y125.98 E5.47377
G1 X95.62 Y125.903 E5.47474
G1 X95.627 Y125.817 E5.47582
G1 X95.646 Y125.737 E5.47685
G1 X95.688 Y125.638 E5.4782
G1 X96.289 Y124.516 E5.49416
G1 X96.766 Y123.711 E5.5059
G1 X97.3 Y122.969 E5.51736
G1 X97.911 Y122.262 E5.52908
G1 X109.51 Y109.987 E5.74086
G1 X111.159 Y109.225 E5.76364
G1 X128.015 Y108.355 E5.97531
G1 X128.955 Y108.347 E5.98709
G1 X129.878 Y108.423 E5.99871
G1 X130.792 Y108.58 E6.01034
G1 X132.033 Y108.85 E6.02626
G1 X132.136 Y108.882 E6.02762
G1 X132.216 Y108.922 E6.02874
G1 X132.278 Y108.968 E6.02971
G1 X132.34 Y109.033 E6.03083
G1 X132.382 Y109.094 E6.03176
G1 X132.42 Y109.176 E6.03289
G1 X132.444 Y109.26 E6.03399
G1 X132.451 Y109.335 E6.03493
G1 X132.444 Y109.423 E6.03604
G1 X132.426 Y109.5 E6.03703
G1 X132.381 Y109.605 E6.03847
G1 X131.782 Y110.724 E6.05438
G1 X131.305 Y111.529 E6.06612
G1 X130.771 Y112.271 E6.07758
G1 X130.16 Y112.978 E6.0893
G1 X118.561 Y125.253 E6.30108
G1 X116.912 Y126.015 E6.32386
G1 X100.056 Y126.885 E6.53553
G1 X99.115 Y126.892 E6.54733
G1 X98.194 Y126.817 E6.55891
M204 S5000
M205 X30 Y30
G0 F3600 X98.206 Y126.718
G0 X129.866 Y108.522
G0 X129.922 Y108.025
M204 S3000
M205 X20 Y20
;TYPE:WALL-OUTER
G1 F1650 X130.877 Y108.189 E6.57107
G1 X132.134 Y108.463 E6.5872
G1 X132.286 Y108.509 E6.58919
G1 X132.424 Y108.579 E6.59113
G1 X132.545 Y108.668 E6.59302
G1 X132.652 Y108.779 E6.59495
G1 X132.731 Y108.895 E6.59671
G1 X132.798 Y109.04 E6.59871
G1 X132.838 Y109.185 E6.6006
G1 X132.853 Y109.335 E6.60249
G1 X132.841 Y109.484 E6.60436
G1 X132.807 Y109.627 E6.60621
G1 X132.739 Y109.784 E6.60835
G1 X132.135 Y110.913 E6.62441
G1 X131.642 Y111.746 E6.63655
G1 X131.083 Y112.521 E6.64853
G1 X130.451 Y113.253 E6.66066
G1 X118.8 Y125.583 E6.87339
G1 X117.011 Y126.41 E6.89811
G1 X100.059 Y127.285 E7.11097
G1 X99.097 Y127.292 E7.12304
G1 X98.149 Y127.215 E7.13497
G1 X97.194 Y127.051 E7.14712
G1 X95.941 Y126.778 E7.1632
G1 X95.784 Y126.729 E7.16526
G1 X95.644 Y126.658 E7.16723
G1 X95.528 Y126.574 E7.16903
G1 X95.421 Y126.463 E7.17096
G1 X95.338 Y126.341 E7.17281
G1 X95.273 Y126.2 E7.17476
G1 X95.233 Y126.055 E7.17664
G1 X95.218 Y125.905 E7.17853
G1 X95.23 Y125.756 E7.18041
G1 X95.264 Y125.613 E7.18225
G1 X95.332 Y125.455 E7.18441
G1 X95.936 Y124.327 E7.20045
G1 X96.429 Y123.494 E7.21259
G1 X96.988 Y122.719 E7.22458
G1 X97.62 Y121.987 E7.2367
G1 X109.271 Y109.657 E7.44944
G1 X111.06 Y108.83 E7.47415
G1 X128.012 Y107.955 E7.68702
G1 X128.974 Y107.947 E7.69909
G1 X129.922 Y108.025 E7.71101
M204 S5000
M205 X30 Y30
G0 F3600 X130.119 Y108.058
G0 X130.034 Y108.55
G0 X129.782 Y109.207
M204 S3000
M205 X20 Y20
;TYPE:SKIN
G1 F1650 X130.633 Y109.354 E7.72184
G1 X131.516 Y109.545 E7.73317
G1 X131.093 Y110.336 E7.74442
G1 X130.641 Y111.099 E7.75554
G1 X130.153 Y111.777 E7.76602
G1 X129.565 Y112.457 E7.77729
G1 X118.092 Y124.599 E7.98678
G1 X116.719 Y125.234 E8.00575
G1 X100.033 Y126.095 E8.21528
G1 X99.138 Y126.102 E8.2265
G1 X98.292 Y126.033 E8.23714
G1 X97.426 Y125.885 E8.24816
G1 X96.56 Y125.692 E8.25929
G1 X96.983 Y124.896 E8.27059
G1 X97.43 Y124.14 E8.28161
G1 X97.919 Y123.463 E8.29208
G1 X98.509 Y122.779 E8.30341
G1 X109.979 Y110.641 E8.51283
G1 X111.352 Y110.006 E8.5318
G1 X128.038 Y109.145 E8.74133
G1 X128.93 Y109.137 E8.75252
G1 X129.782 Y109.207 E8.76324
M204 S5000
M205 X30 Y30
G0 F3600 X131.217 Y109.721
M204 S3000
M205 X20 Y20
G1 F1650 X131.142 Y109.646 E8.76457
M204 S5000
M205 X30 Y30
G0 F3600 X131.02 Y110.09
M204 S3000
M205 X20 Y20
G1 F1650 X130.432 Y109.501 E8.775
M204 S5000
M205 X30 Y30
G0 F3600 X129.749 Y109.384
M204 S3000
M205 X20 Y20
G1 F1650 X130.816 Y110.451 E8.79393
M204 S5000
M205 X30 Y30
G0 F3600 X130.605 Y110.806
M204 S3000
M205 X20 Y20
G1 F1650 X129.132 Y109.333 E8.82005
M204 S5000
M205 X30 Y30
G0 F3600 X128.554 Y109.32
M204 S3000
M205 X20 Y20
G1 F1650 X130.382 Y111.149 E8.85248
M204 S5000
M205 X30 Y30
G0 F3600 X130.145 Y111.478
M204 S3000
M205 X20 Y20
G1 F1650 X127.995 Y109.327 E8.89062
M204 S5000
M205 X30 Y30
G0 F3600 X127.457 Y109.355
M204 S3000
M205 X20 Y20
G1 F1650 X129.897 Y111.795 E8.93389
M204 S5000
M205 X30 Y30
G0 F3600 X129.635 Y112.099
M204 S3000
M205 X20 Y20
G1 F1650 X126.92 Y109.383 E8.98205
M204 S5000
M205 X30 Y30
G0 F3600 X126.381 Y109.411
M204 S3000
M205 X20 Y20
G1 F1650 X129.37 Y112.4 E9.03506
M204 S5000
M205 X30 Y30
G0 F3600 X129.095 Y112.69
M204 S3000
M205 X20 Y20
G1 F1650 X125.843 Y109.438 E9.09273
M204 S5000
M205 X30 Y30
G0 F3600 X125.305 Y109.466
M204 S3000
M205 X20 Y20
G1 F1650 X128.821 Y112.982 E9.15509
M204 S5000
M205 X30 Y30
G0 F3600 X128.546 Y113.272
M204 S3000
M205 X20 Y20
G1 F1650 X124.768 Y109.494 E9.22209
M204 S5000
M205 X30 Y30
G0 F3600 X124.23 Y109.522
M204 S3000
M205 X20 Y20
G1 F1650 X128.271 Y113.563 E9.29375
M204 S5000
M205 X30 Y30
G0 F3600 X127.996 Y113.854
M204 S3000
M205 X20 Y20
G1 F1650 X123.692 Y109.549 E9.37009
M204 S5000
M205 X30 Y30
G0 F3600 X123.153 Y109.577
M204 S3000
M205 X20 Y20
G1 F1650 X127.721 Y114.145 E9.45111
M204 S5000
M205 X30 Y30
G0 F3600 X127.446 Y114.436
M204 S3000
M205 X20 Y20
G1 F1650 X122.615 Y109.605 E9.53678
M204 S5000
M205 X30 Y30
G0 F3600 X122.078 Y109.633
M204 S3000
M205 X20 Y20
G1 F1650 X127.172 Y114.727 E9.62712
M204 S5000
M205 X30 Y30
G0 F3600 X126.897 Y115.017
M204 S3000
M205 X20 Y20
G1 F1650 X121.54 Y109.66 E9.72213
M204 S5000
M205 X30 Y30
G0 F3600 X121.002 Y109.688
M204 S3000
M205 X20 Y20
G1 F1650 X126.622 Y115.308 E9.8218
M204 S5000
M205 X30 Y30
G0 F3600 X126.347 Y115.599
M204 S3000
M205 X20 Y20
G1 F1650 X120.464 Y109.716 E9.92613
M204 S5000
M205 X30 Y30
G0 F3600 X119.926 Y109.744
M204 S3000
M205 X20 Y20
G1 F1650 X126.072 Y115.89 E10.03513
M204 S5000
M205 X30 Y30
G0 F3600 X125.797 Y116.181
M204 S3000
M205 X20 Y20
G1 F1650 X119.388 Y109.771 E10.1488
M204 S5000
M205 X30 Y30
G0 F3600 X118.85 Y109.799
M204 S3000
M205 X20 Y20
G1 F1650 X125.523 Y116.472 E10.26714
M204 S5000
M205 X30 Y30
G0 F3600 X125.248 Y116.763
M204 S3000
M205 X20 Y20
G1 F1650 X118.312 Y109.827 E10.39015
M204 S5000
M205 X30 Y30
G0 F3600 X117.774 Y109.854
M204 S3000
M205 X20 Y20
G1 F1650 X124.973 Y117.053 E10.51782
M204 S5000
M205 X30 Y30
G0 F3600 X124.698 Y117.345
M204 S3000
M205 X20 Y20
G1 F1650 X117.236 Y109.882 E10.65017
M204 S5000
M205 X30 Y30
G0 F3600 X116.698 Y109.91
M204 S3000
M205 X20 Y20
G1 F1650 X124.423 Y117.635 E10.78717
M204 S5000
M205 X30 Y30
G0 F3600 X124.148 Y117.926
M204 S3000
M205 X20 Y20
G1 F1650 X116.16 Y109.938 E10.92884
M204 S5000
M205 X30 Y30
G0 F3600 X115.622 Y109.965
M204 S3000
M205 X20 Y20
G1 F1650 X123.874 Y118.217 E11.07518
M204 S5000
M205 X30 Y30
G0 F3600 X123.599 Y118.508
M204 S3000
M205 X20 Y20
G1 F1650 X115.085 Y109.993 E11.22619
M204 S5000
M205 X30 Y30
G0 F3600 X114.547 Y110.021
M204 S3000
M205 X20 Y20
G1 F1650 X123.324 Y118.798 E11.38184
M204 S5000
M205 X30 Y30
G0 F3600 X123.05 Y119.09
M204 S3000
M205 X20 Y20
G1 F1650 X114.008 Y110.049 E11.54219
M204 S5000
M205 X30 Y30
G0 F3600 X113.47 Y110.076
M204 S3000
M205 X20 Y20
G1 F1650 X122.774 Y119.38 E11.7072
M204 S5000
M205 X30 Y30
G0 F3600 X122.499 Y119.671
M204 S3000
M205 X20 Y20
G1 F1650 X112.932 Y110.104 E11.87687
